resources/metaraminol bare.svg

<?xml version="1.0"?>
<!DOCTYPE svg PUBLIC '-//W3C//DTD SVG 1.0//EN'
          'http://www.w3.org/TR/2001/REC-SVG-20010904/DTD/svg10.dtd'>
<svg fill-opacity="1" xmlns:xlink="http://www.w3.org/1999/xlink" color-rendering="auto" color-interpolation="auto" text-rendering="auto" stroke="black" stroke-linecap="square" width="469" stroke-miterlimit="10" shape-rendering="auto" stroke-opacity="1" fill="black" stroke-dasharray="none" font-weight="normal" stroke-width="1" height="475" xmlns="http://www.w3.org/2000/svg" font-family="'Dialog'" font-style="normal" stroke-linejoin="miter" font-size="12px" stroke-dashoffset="0" image-rendering="auto"
><!--Generated by Marvin with Batik SVG Generator
MolSource:
<?xml version="1.0" encoding="windows-1252"?><cml xmlns="http://www.chemaxon.com" xmlns:xsi="http://www.w3.org/2001/XMLSchema-instance" xsi:schemaLocation="http://www.chemaxon.com/marvin/schema/mrvSchema_16_02_15.xsd" version="ChemAxon file format v16.02.15, generated by v17.21.0">
<MDocument><MTextBox id="o1" color="#000000" toption="NOROT" fontScale="10.0" halign="LEFT" valign="TOP" autoSize="true"><Field name="text"><![CDATA[{D font=SansSerif,size=10}]]></Field><MPoint x="-1.875" y="-1.6041666269302368"></MPoint><MPoint x="-1.8750000000000142" y="-1.6041666269302368"></MPoint><MPoint x="-1.8750000000000142" y="-2.37416662693024"></MPoint><MPoint x="-1.8750000000000426" y="-2.37416662693024"></MPoint></MTextBox><MTextBox id="o2" color="#000000" toption="NOROT" fontScale="10.0" halign="LEFT" valign="TOP" autoSize="true"><Field name="text"><![CDATA[{D font=SansSerif,size=10}]]></Field><MPoint x="-11.166666984558105" y="8.416666984558105"></MPoint><MPoint x="-11.16666698455812" y="8.416666984558105"></MPoint><MPoint x="-11.16666698455812" y="7.6466669845581094"></MPoint><MPoint x="-11.166666984558134" y="7.6466669845581094"></MPoint></MTextBox><MChemicalStruct><molecule molID="m1"><atomArray atomID="a1 a2 a3 a4 a5 a6 a7 a8 a9 a10 a11 a12" elementType="O O N C C C C C C C C C" x2="-13.24702685655273 -7.9634131029261805 -5.253366482730385 -6.587045604558421 -7.9634131029261805 -9.291790994781856 -9.211191848967008 -10.502733869627047 -11.874875036101928 -11.955474181916776 -10.66393216125674 -6.587045604558421" y2="7.787906912751098 9.407870380970737 7.947064685107655 7.177064685107656 7.867870380970737 7.088760519379271 5.550837201172043 4.712076681792769 5.411239480620729 6.949162798827956 7.78792331820723 5.637064685107656"></atomArray><bondArray><bond id="b1" atomRefs2="a4 a3" order="1"></bond><bond id="b2" atomRefs2="a5 a2" order="1"></bond><bond id="b3" atomRefs2="a5 a4" order="1"></bond><bond id="b4" atomRefs2="a6 a5" order="1"></bond><bond id="b5" atomRefs2="a7 a6" order="1"></bond><bond id="b6" atomRefs2="a8 a7" order="2"></bond><bond id="b7" atomRefs2="a9 a8" order="1"></bond><bond id="b8" atomRefs2="a10 a1" order="1"></bond><bond id="b9" atomRefs2="a10 a9" order="2"></bond><bond id="b10" atomRefs2="a11 a6" order="2"></bond><bond id="b11" atomRefs2="a11 a10" order="1"></bond><bond id="b12" atomRefs2="a4 a12" order="1"></bond></bondArray></molecule></MChemicalStruct></MDocument>
</cml>
--><defs id="genericDefs"
  /><g
  ><defs id="425018480118-defs1"
    ><clipPath clipPathUnits="userSpaceOnUse" id="425018480703-clipPath1"
      ><path d="M0 0 L469 0 L469 475 L0 475 L0 0 Z"
      /></clipPath
      ><clipPath clipPathUnits="userSpaceOnUse" id="425018480744-clipPath1"
      ><path d="M278.0648 87.8362 C266.0373 87.8362 256.2871 97.5864 256.2871 109.6139 C256.2871 121.6413 266.0373 131.3915 278.0648 131.3915 C290.0922 131.3915 299.8424 121.6413 299.8424 109.6139 C299.8424 97.5864 290.0922 87.8362 278.0648 87.8362 Z"
      /></clipPath
      ><clipPath clipPathUnits="userSpaceOnUse" id="425018480708-clipPath1"
      ><path d="M228.4679 64.0729 C217.0643 64.0729 207.8198 73.3173 207.8198 84.721 C207.8198 96.1246 217.0643 105.369 228.4679 105.369 C239.8715 105.369 249.116 96.1246 249.116 84.721 C249.116 73.3173 239.8715 64.0729 228.4679 64.0729 Z"
      /></clipPath
      ><clipPath clipPathUnits="userSpaceOnUse" id="425018480368-clipPath1"
      ><path d="M84.6155 97.2704 C73.2628 97.2704 64.0596 106.4735 64.0596 117.8262 C64.0596 129.1789 73.2628 138.3821 84.6155 138.3821 C95.9682 138.3821 105.1714 129.1789 105.1714 117.8262 C105.1714 106.4735 95.9682 97.2704 84.6155 97.2704 Z"
      /></clipPath
      ><clipPath clipPathUnits="userSpaceOnUse" id="425018480933-clipPath1"
      ><path d="M-19.0124 -75.1024 L449.9876 -75.1024 L449.9876 399.8976 L-19.0124 399.8976 L-19.0124 -75.1024 Z"
      /></clipPath
      ><clipPath clipPathUnits="userSpaceOnUse" id="425018480545-clipPath1"
      ><path d="M-221.6241 -16.7277 L247.3759 -16.7277 L247.3759 458.2723 L-221.6241 458.2723 L-221.6241 -16.7277 Z"
      /></clipPath
      ><clipPath clipPathUnits="userSpaceOnUse" id="425018480718-clipPath1"
      ><path d="M-319.4906 -69.3672 L149.5094 -69.3672 L149.5094 405.6328 L-319.4906 405.6328 L-319.4906 -69.3672 Z"
      /></clipPath
      ><clipPath clipPathUnits="userSpaceOnUse" id="425018480476-clipPath1"
      ><path d="M-345.2874 -79.704 L123.7126 -79.704 L123.7126 395.296 L-345.2874 395.296 L-345.2874 -79.704 Z"
      /></clipPath
      ><clipPath clipPathUnits="userSpaceOnUse" id="425018480790-clipPath1"
      ><path d="M-271.2366 -152.6072 L197.7634 -152.6072 L197.7634 322.3928 L-271.2366 322.3928 L-271.2366 -152.6072 Z"
      /></clipPath
      ><clipPath clipPathUnits="userSpaceOnUse" id="425018480426-clipPath1"
      ><path d="M-298.0648 -162.8519 L170.9352 -162.8519 L170.9352 312.1482 L-298.0648 312.1482 L-298.0648 -162.8519 Z"
      /></clipPath
    ></defs
    ><g fill="rgb(51,51,153)" text-rendering="geometricPrecision" stroke="rgb(51,51,153)"
    ><path d="M278.6653 110.6541 L316.3853 88.8765 C316.9599 88.5447 317.1567 87.8103 316.825 87.2357 C316.4932 86.6611 315.7588 86.4643 315.1842 86.796 L277.4642 108.5737 C276.8896 108.9054 276.6928 109.6398 277.0245 110.2145 C277.3563 110.7891 278.0907 110.9859 278.6653 110.6541 Z" stroke="none" clip-path="url(#425018480703-clipPath1)"
      /><path fill="black" d="M278.6653 110.6541 L316.3853 88.8765 C316.9599 88.5447 317.1567 87.8103 316.825 87.2357 C316.4932 86.6611 315.7588 86.4643 315.1842 86.796 L277.4642 108.5737 C276.8896 108.9054 276.6928 109.6398 277.0245 110.2145 C277.3563 110.7891 278.0907 110.9859 278.6653 110.6541 Z" clip-path="url(#425018480744-clipPath1)" stroke="none"
    /></g
    ><g fill="red" text-rendering="geometricPrecision" stroke="red"
    ><path d="M229.669 84.721 L229.669 43.4248 C229.669 42.7613 229.1314 42.2237 228.4679 42.2237 C227.8044 42.2237 227.2668 42.7613 227.2668 43.4248 L227.2668 84.721 C227.2668 85.3845 227.8044 85.9221 228.4679 85.9221 C229.1314 85.9221 229.669 85.3845 229.669 84.721 Z" stroke="none" clip-path="url(#425018480703-clipPath1)"
      /><path fill="black" d="M229.669 84.721 L229.669 43.4248 C229.669 42.7613 229.1314 42.2237 228.4679 42.2237 C227.8044 42.2237 227.2668 42.7613 227.2668 43.4248 L227.2668 84.721 C227.2668 85.3845 227.8044 85.9221 228.4679 85.9221 C229.1314 85.9221 229.669 85.3845 229.669 84.721 Z" clip-path="url(#425018480708-clipPath1)" stroke="none"
    /></g
    ><g text-rendering="geometricPrecision"
    ><path d="M227.9291 85.7945 L277.526 110.6874 C278.119 110.985 278.8406 110.7457 279.1383 110.1527 C279.4359 109.5597 279.1966 108.838 278.6036 108.5404 L229.0067 83.6475 C228.4137 83.3498 227.692 83.5892 227.3944 84.1822 C227.0967 84.7752 227.3361 85.4968 227.9291 85.7945 Z" stroke="none" clip-path="url(#425018480703-clipPath1)"
    /></g
    ><g text-rendering="geometricPrecision"
    ><path d="M181.208 113.832 L229.0756 85.757 C229.6479 85.4214 229.8396 84.6856 229.504 84.1133 C229.1683 83.541 228.4325 83.3492 227.8602 83.6849 L179.9926 111.7598 C179.4203 112.0955 179.2285 112.8312 179.5642 113.4036 C179.8999 113.9759 180.6357 114.1677 181.208 113.832 Z" stroke="none" clip-path="url(#425018480703-clipPath1)"
    /></g
    ><g text-rendering="geometricPrecision"
    ><path d="M184.7042 168.1515 L181.7998 112.733 C181.7651 112.0704 181.2 111.5617 180.5374 111.5964 C179.8748 111.6311 179.3661 112.1962 179.4008 112.8588 L182.3052 168.2772 C182.3399 168.9398 182.9049 169.4486 183.5675 169.4139 C184.2301 169.3791 184.7389 168.8141 184.7042 168.1515 Z" stroke="none" clip-path="url(#425018480703-clipPath1)"
    /></g
    ><g text-rendering="geometricPrecision"
    ><path d="M136.7127 185.2349 C136.1562 185.5963 135.9982 186.34 136.3595 186.8964 C136.7209 187.4529 137.4646 187.611 138.0211 187.2496 L172.8532 164.6287 C173.4096 164.2674 173.5677 163.5236 173.2063 162.9672 C172.845 162.4107 172.1012 162.2527 171.5448 162.614 ZM136.3102 197.4314 C135.7538 197.7928 135.5957 198.5365 135.9571 199.093 C136.3185 199.6494 137.0622 199.8075 137.6186 199.4461 L184.1589 169.2217 C184.7153 168.8603 184.8734 168.1166 184.512 167.5602 C184.1506 167.0037 183.4069 166.8456 182.8505 167.207 Z" stroke="none" clip-path="url(#425018480703-clipPath1)"
    /></g
    ><g text-rendering="geometricPrecision"
    ><path d="M86.9745 174.3149 L136.4191 199.509 C137.0103 199.8102 137.7334 199.5753 138.0347 198.9841 C138.3359 198.3929 138.101 197.6698 137.5098 197.3686 L88.0652 172.1745 C87.474 171.8733 86.7509 172.1082 86.4496 172.6994 C86.1484 173.2906 86.3834 174.0137 86.9745 174.3149 Z" stroke="none" clip-path="url(#425018480703-clipPath1)"
    /></g
    ><g fill="red" text-rendering="geometricPrecision" stroke="red"
    ><path d="M85.2697 116.8189 L50.7905 94.4278 C50.234 94.0664 49.4903 94.2245 49.1289 94.781 C48.7675 95.3374 48.9256 96.0812 49.4821 96.4425 L83.9613 118.8336 C84.5178 119.195 85.2615 119.0369 85.6229 118.4804 C85.9842 117.924 85.8261 117.1803 85.2697 116.8189 Z" stroke="none" clip-path="url(#425018480703-clipPath1)"
      /><path fill="black" d="M85.2697 116.8189 L50.7905 94.4278 C50.234 94.0664 49.4903 94.2245 49.1289 94.781 C48.7675 95.3374 48.9256 96.0812 49.4821 96.4425 L83.9613 118.8336 C84.5178 119.195 85.2615 119.0369 85.6229 118.4804 C85.9842 117.924 85.8261 117.1803 85.2697 116.8189 Z" clip-path="url(#425018480368-clipPath1)" stroke="none"
    /></g
    ><g text-rendering="geometricPrecision"
    ><path d="M96.1762 124.2101 C96.1415 123.5475 95.5764 123.0387 94.9138 123.0734 C94.2512 123.1081 93.7425 123.6732 93.7772 124.3358 L95.9509 165.8132 C95.9857 166.4758 96.5507 166.9845 97.2133 166.9498 C97.8759 166.9151 98.3847 166.3501 98.3499 165.6875 ZM85.815 117.7634 C85.7803 117.1008 85.2152 116.592 84.5526 116.6267 C83.89 116.6615 83.3813 117.2265 83.416 117.8891 L86.3204 173.3076 C86.3551 173.9702 86.9201 174.4789 87.5827 174.4442 C88.2453 174.4095 88.7541 173.8445 88.7194 173.1819 Z" stroke="none" clip-path="url(#425018480703-clipPath1)"
    /></g
    ><g text-rendering="geometricPrecision"
    ><path d="M131.701 86.5316 C131.1099 86.2304 130.3867 86.4653 130.0855 87.0565 C129.7843 87.6477 130.0192 88.3708 130.6104 88.672 L180.055 113.8661 C180.6462 114.1673 181.3693 113.9324 181.6705 113.3412 C181.9718 112.75 181.7368 112.0269 181.1456 111.7257 ZM133.3762 98.6193 C132.785 98.318 132.0619 98.553 131.7606 99.1442 C131.4594 99.7354 131.6944 100.4585 132.2855 100.7597 L169.2913 119.6157 C169.8825 119.9169 170.6056 119.682 170.9069 119.0908 C171.2081 118.4996 170.9731 117.7765 170.382 117.4753 Z" stroke="none" clip-path="url(#425018480703-clipPath1)"
    /></g
    ><g text-rendering="geometricPrecision"
    ><path d="M130.5015 86.5945 L83.9613 116.8189 C83.4048 117.1803 83.2468 117.924 83.6081 118.4804 C83.9695 119.0369 84.7132 119.195 85.2697 118.8336 L131.8099 88.6092 C132.3664 88.2478 132.5245 87.5041 132.1631 86.9476 C131.8017 86.3912 131.058 86.2331 130.5015 86.5945 Z" stroke="none" clip-path="url(#425018480703-clipPath1)"
    /></g
    ><g text-rendering="geometricPrecision"
    ><path d="M276.8636 109.6139 L276.8636 151.1698 C276.8636 151.8333 277.4013 152.371 278.0648 152.371 C278.7283 152.371 279.2659 151.8333 279.2659 151.1698 L279.2659 109.6139 C279.2659 108.9504 278.7283 108.4127 278.0648 108.4127 C277.4013 108.4127 276.8636 108.9504 276.8636 109.6139 Z" stroke="none" clip-path="url(#425018480703-clipPath1)"
    /></g
    ><g fill="white" text-rendering="geometricPrecision" stroke="white"
    ><path d="M24.6462 78.4598 C22.087 78.4598 20.0124 80.5345 20.0124 83.0936 L20.0124 92.3612 C20.0124 94.9204 22.087 96.995 24.6462 96.995 L41.4255 96.995 C43.9847 96.995 46.0593 94.9204 46.0593 92.3612 L46.0593 83.0936 C46.0593 80.5345 43.9847 78.4598 41.4255 78.4598 Z" stroke="none" clip-path="url(#425018480703-clipPath1)"
    /></g
    ><g fill="red" text-rendering="geometricPrecision" font-size="19px" font-family="sans-serif" transform="translate(19.0124,75.1024)" stroke="red"
    ><text x="0" xml:space="preserve" y="20" clip-path="url(#425018480933-clipPath1)" stroke="none"
      >HO</text
    ></g
    ><g fill="white" text-rendering="geometricPrecision" font-size="19px" font-family="sans-serif" stroke="white"
    ><path d="M226.2579 20.0851 C223.6988 20.0851 221.6241 22.1597 221.6241 24.7189 L221.6241 33.9864 C221.6241 36.5456 223.6988 38.6202 226.2579 38.6202 L244.8497 38.6202 C247.4089 38.6202 249.4835 36.5456 249.4835 33.9864 L249.4835 24.7189 C249.4835 22.1597 247.4089 20.0851 244.8497 20.0851 Z" stroke="none" clip-path="url(#425018480703-clipPath1)"
      /><text x="0" y="20" transform="translate(221.6241,16.7277)" clip-path="url(#425018480545-clipPath1)" fill="red" stroke="none" xml:space="preserve"
      >OH</text
    ></g
    ><g fill="white" text-rendering="geometricPrecision" font-size="19px" font-family="sans-serif" stroke="white"
    ><path d="M324.9632 72.9219 C322.493 72.9219 320.4906 74.9244 320.4906 77.3946 L320.4906 86.3399 C320.4906 88.8101 322.493 90.8125 324.9632 90.8125 L340.3148 90.8125 C342.785 90.8125 344.7874 88.8101 344.7874 86.3399 L344.7874 93.6962 C344.7874 96.1771 346.7987 98.1884 349.2796 98.1884 L349.7494 98.1884 C352.2304 98.1884 354.2416 96.1771 354.2416 93.6962 L354.2416 84.7118 C354.2416 82.2308 352.2304 80.2196 349.7494 80.2196 L349.2796 80.2196 C346.7987 80.2196 344.7874 82.2308 344.7874 84.7118 L344.7874 77.3946 C344.7874 74.9244 342.785 72.9219 340.3148 72.9219 Z" stroke="none" clip-path="url(#425018480703-clipPath1)"
      /><text x="0" y="20" transform="translate(319.4906,69.3672)" clip-path="url(#425018480718-clipPath1)" fill="rgb(51,51,153)" stroke="none" xml:space="preserve"
      >NH</text
    ></g
    ><g fill="rgb(51,51,153)" text-rendering="geometricPrecision" font-size="14px" font-family="sans-serif" transform="translate(345.2874,79.704)" stroke="rgb(51,51,153)"
    ><text x="0" xml:space="preserve" y="15" clip-path="url(#425018480476-clipPath1)" stroke="none"
      >2</text
    ></g
    ><g fill="white" text-rendering="geometricPrecision" font-size="14px" font-family="sans-serif" stroke="white"
    ><path d="M276.3655 155.9744 C273.8091 155.9744 271.7366 158.0468 271.7366 160.6033 L271.7366 169.8611 C271.7366 172.4176 273.8091 174.49 276.3655 174.49 L292.9359 174.49 C295.4923 174.49 297.5648 172.4176 297.5648 169.8611 L297.5648 177.0472 C297.5648 179.5713 299.611 181.6175 302.1351 181.6175 L302.3694 181.6175 C304.8936 181.6175 306.9398 179.5713 306.9398 177.0472 L306.9398 167.9065 C306.9398 165.3824 304.8936 163.3362 302.3694 163.3362 L302.1351 163.3362 C299.611 163.3362 297.5648 165.3824 297.5648 167.9065 L297.5648 160.6033 C297.5648 158.0468 295.4923 155.9744 292.9359 155.9744 Z" stroke="none" clip-path="url(#425018480703-clipPath1)"
      /><text x="0" font-size="19px" y="20" transform="translate(271.2366,152.6072)" clip-path="url(#425018480790-clipPath1)" fill="black" stroke="none" xml:space="preserve"
      >CH</text
    ></g
    ><g text-rendering="geometricPrecision" font-size="14px" font-family="sans-serif" transform="translate(298.0648,162.8518)"
    ><text x="0" xml:space="preserve" y="15" clip-path="url(#425018480426-clipPath1)" stroke="none"
      >3</text
    ></g
  ></g
></svg
>

<svg color-interpolation="auto" stroke="#000" stroke-linecap="square" width="469" stroke-miterlimit="10" height="475" xmlns="http://www.w3.org/2000/svg" font-family="'Dialog'" font-size="12"><defs><clipPath id="a"><path d="M0 0h469v475H0V0z"/></clipPath><clipPath id="b"><path d="M278.065 87.836c-12.028 0-21.778 9.75-21.778 21.778 0 12.027 9.75 21.778 21.778 21.778 12.027 0 21.777-9.75 21.777-21.778 0-12.028-9.75-21.778-21.777-21.778z"/></clipPath><clipPath id="c"><path d="M228.468 64.073c-11.404 0-20.648 9.244-20.648 20.648s9.244 20.648 20.648 20.648 20.648-9.244 20.648-20.648-9.245-20.648-20.648-20.648z"/></clipPath><clipPath id="d"><path d="M84.615 97.27c-11.352 0-20.555 9.204-20.555 20.556 0 11.353 9.203 20.556 20.555 20.556 11.353 0 20.556-9.203 20.556-20.556 0-11.352-9.203-20.556-20.556-20.556z"/></clipPath><clipPath id="e"><path d="M-19.012-75.102h469v475h-469v-475z"/></clipPath><clipPath id="f"><path d="M-221.624-16.728h469v475h-469v-475z"/></clipPath><clipPath id="g"><path d="M-319.49-69.367h469v475h-469v-475z"/></clipPath><clipPath id="h"><path d="M-345.287-79.704h469v475h-469v-475z"/></clipPath><clipPath id="i"><path d="M-271.237-152.607h469v475h-469v-475z"/></clipPath><clipPath id="j"><path d="M-298.065-162.852h469v475h-469v-475z"/></clipPath></defs><g fill="#339" text-rendering="geometricPrecision" stroke="none"><path d="M278.665 110.654l37.72-21.778a1.201 1.201 0 1 0-1.2-2.08l-37.72 21.778a1.201 1.201 0 1 0 1.2 2.08z" clip-path="url(#a)"/><path fill="#000" d="M278.665 110.654l37.72-21.778a1.201 1.201 0 1 0-1.2-2.08l-37.72 21.778a1.201 1.201 0 1 0 1.2 2.08z" clip-path="url(#b)"/></g><g fill="red" text-rendering="geometricPrecision" stroke="none"><path d="M229.669 84.721V43.425a1.2 1.2 0 1 0-2.402 0V84.72a1.2 1.2 0 1 0 2.402 0z" clip-path="url(#a)"/><path fill="#000" d="M229.669 84.721V43.425a1.2 1.2 0 1 0-2.402 0V84.72a1.2 1.2 0 1 0 2.402 0z" clip-path="url(#c)"/></g><path d="M227.93 85.794l49.596 24.893a1.201 1.201 0 1 0 1.078-2.147l-49.597-24.893a1.2 1.2 0 1 0-1.078 2.147z" stroke="none" clip-path="url(#a)" text-rendering="geometricPrecision"/><path d="M181.208 113.832l47.868-28.075a1.201 1.201 0 1 0-1.216-2.072l-47.867 28.075a1.201 1.201 0 1 0 1.215 2.072z" stroke="none" clip-path="url(#a)" text-rendering="geometricPrecision"/><path d="M184.704 168.151l-2.904-55.418a1.201 1.201 0 1 0-2.4.126l2.905 55.418a1.201 1.201 0 1 0 2.4-.125z" stroke="none" clip-path="url(#a)" text-rendering="geometricPrecision"/><path d="M136.713 185.235a1.201 1.201 0 1 0 1.308 2.015l34.832-22.621a1.2 1.2 0 1 0-1.308-2.015zm-.403 12.196a1.201 1.201 0 1 0 1.309 2.015l46.54-30.224a1.2 1.2 0 1 0-1.308-2.015z" stroke="none" clip-path="url(#a)" text-rendering="geometricPrecision"/><path d="M86.975 174.315l49.444 25.194a1.201 1.201 0 1 0 1.09-2.14l-49.444-25.195a1.201 1.201 0 1 0-1.09 2.14z" stroke="none" clip-path="url(#a)" text-rendering="geometricPrecision"/><g fill="red" text-rendering="geometricPrecision" stroke="none"><path d="M85.27 116.819L50.79 94.428a1.201 1.201 0 1 0-1.308 2.014l34.48 22.392a1.201 1.201 0 1 0 1.308-2.015z" clip-path="url(#a)"/><path fill="#000" d="M85.27 116.819L50.79 94.428a1.201 1.201 0 1 0-1.308 2.014l34.48 22.392a1.201 1.201 0 1 0 1.308-2.015z" clip-path="url(#d)"/></g><path d="M96.176 124.21a1.201 1.201 0 1 0-2.399.126l2.174 41.477a1.201 1.201 0 1 0 2.399-.125zm-10.361-6.447a1.201 1.201 0 1 0-2.399.126l2.904 55.419a1.2 1.2 0 1 0 2.4-.126zM131.701 86.532a1.201 1.201 0 1 0-1.09 2.14l49.444 25.194a1.2 1.2 0 1 0 1.09-2.14zm1.675 12.087a1.201 1.201 0 1 0-1.09 2.14l37.005 18.857a1.201 1.201 0 1 0 1.091-2.14z" stroke="none" clip-path="url(#a)" text-rendering="geometricPrecision"/><path d="M130.501 86.594l-46.54 30.225a1.201 1.201 0 1 0 1.309 2.015l46.54-30.225a1.201 1.201 0 1 0-1.309-2.014zM276.864 109.614v41.556a1.201 1.201 0 1 0 2.402 0v-41.556a1.201 1.201 0 1 0-2.402 0z" stroke="none" clip-path="url(#a)" text-rendering="geometricPrecision"/><path d="M24.646 78.46a4.634 4.634 0 0 0-4.634 4.634v9.267a4.634 4.634 0 0 0 4.634 4.634h16.78a4.634 4.634 0 0 0 4.633-4.634v-9.267a4.634 4.634 0 0 0-4.633-4.634z" stroke="none" clip-path="url(#a)" fill="#fff" text-rendering="geometricPrecision"/><text y="20" clip-path="url(#e)" stroke="none" transform="translate(19.012 75.102)" fill="red" text-rendering="geometricPrecision" font-size="19" font-family="sans-serif">HO</text><g fill="#fff" text-rendering="geometricPrecision" font-size="19" font-family="sans-serif" stroke="none"><path d="M226.258 20.085a4.634 4.634 0 0 0-4.634 4.634v9.267a4.634 4.634 0 0 0 4.634 4.634h18.592a4.634 4.634 0 0 0 4.633-4.634V24.72a4.634 4.634 0 0 0-4.633-4.634z" clip-path="url(#a)"/><text y="20" transform="translate(221.624 16.728)" clip-path="url(#f)" fill="red">OH</text></g><g fill="#fff" text-rendering="geometricPrecision" font-size="19" font-family="sans-serif" stroke="none"><path d="M324.963 72.922a4.473 4.473 0 0 0-4.472 4.473v8.945a4.473 4.473 0 0 0 4.472 4.472h15.352a4.473 4.473 0 0 0 4.472-4.472v7.356a4.492 4.492 0 0 0 4.493 4.492h.47a4.492 4.492 0 0 0 4.492-4.492v-8.984a4.492 4.492 0 0 0-4.493-4.492h-.47a4.492 4.492 0 0 0-4.492 4.492v-7.317a4.473 4.473 0 0 0-4.472-4.473z" clip-path="url(#a)"/><text y="20" transform="translate(319.49 69.367)" clip-path="url(#g)" fill="#339">NH</text></g><text y="15" clip-path="url(#h)" stroke="none" transform="translate(345.287 79.704)" fill="#339" text-rendering="geometricPrecision" font-size="14" font-family="sans-serif">2</text><g fill="#fff" text-rendering="geometricPrecision" font-size="14" font-family="sans-serif" stroke="none"><path d="M276.365 155.974a4.629 4.629 0 0 0-4.628 4.63v9.257a4.629 4.629 0 0 0 4.628 4.629h16.57a4.629 4.629 0 0 0 4.63-4.629v7.186a4.57 4.57 0 0 0 4.57 4.57h.234a4.57 4.57 0 0 0 4.57-4.57v-9.14a4.57 4.57 0 0 0-4.57-4.57h-.234a4.57 4.57 0 0 0-4.57 4.57v-7.304a4.629 4.629 0 0 0-4.63-4.629z" clip-path="url(#a)"/><text font-size="19" y="20" transform="translate(271.237 152.607)" clip-path="url(#i)" fill="#000">CH</text></g><text y="15" clip-path="url(#j)" stroke="none" transform="translate(298.065 162.852)" text-rendering="geometricPrecision" font-size="14" font-family="sans-serif">3</text></svg>
